X: 20939
T: Joy Of Caitlin Brennan, The
R: jig
M: 6/8
K: Gmajor
B|:EAe dcA|B3 cBA|e3 ged|cdB A3|
EAe dcA|B3 cBA|g3 age|1 dcB ABG:|2 dcB A3||
|:cde g3|gea ged|cde g3|eag a3|
cde g3|gea ged|e3 ged|cdB A3:|
|:EAc BAG|E3 DEG|EAc dBG|EAG A3|
EAc BAG|E3 DEG|e3 ged|cdB A3:|
|:e3 cde|g3 age|a3 bag|eag a2g|
e3 cde|gea ged|e3 ged|cdB A3:|
|:ecA EAc|dBG GBd|eBe g3|a3 ged|
ecA EAc|dBG GBd|e3 ged|cdB A3:|
|:eAe cBA|dBd BAG|eAe g3|a3 bag|
eAe cBA|dBd BAG|g3 age|cdB A3:|

